!!!COM: Anon.
!!!OCL: Francis James Child
!!!OPR: The English and Scottish Popular Ballads
!!!ONB: Ballad No. 4, Tune No. 1
!!!OVM: Vol. 1
!!!ONM: No. 4
!!!PDT: 1882
!!!YEM: Public domain.
**kern
*M4/4
*G:
{8d
=1
4g
8f#
8e
4d
8e
8f#
=2
4g
4d
4.B}
!! Second phrase:
{8g
=3
4g
8f#
8e
4d
8e
8f#
=4
2.g}
8r
!! Third phrase:
{8a
=5
4b
8a
8g
4a
4cc
=6
4b
4g
4.d}
!! Fourth phrase:
{8a
=7
4b
8a
8g
4a
8b
8a
=8
2.g}
8r
!! Fifth phrase:
{8dd
=9
4dd
8cc
8b
4a
8b
8cc
=10
4dd
4g
4.dd}
!! Sixth phrase:
{8dd
=11
4dd
8cc
8b
4a
8g
8a
=12
2.b}
8r
!! Seventh phrase:
{8d
=13
4g
8f#
8e
4d
8e
8f#
=14
4g
4d
4.B}
!! Eighth phrase:
{8g
=15
4g
8f#
8e
4d
8e
8f#
=16
2.g}
8r
====
*-
!!!OCY: Britain; England
!!!PPP: Boston
!!!ODT: <1882
!!!AFR: folk song
!!!AST: monophony
!!!AMT: simple quadruple
!!!SCA: Child Collection
!!!AIN: vox
!!!EEV: 1.0
!!!RDT: 1987 June
!!!YER: 1994 August 10
!!!VTS: 652652838
